packages/calcite-ui-icons/icons/mosaic-method-first-32.svg

<svg xmlns="http://www.w3.org/2000/svg" viewBox="0 0 32 32"><path fill="none" d="M0 0h32v32H0z"/><path d="M2 21h4v4H2v-4zm5 9h4v-4H7v4zm2-14h4v-4H9v4zm5 5h4v-4h-4v4zm2-14h4V3h-4v4zm5 1v4h4V8h-4z" opacity=".25"/><path d="M8 6H2V5h6V3l2.842 2.5L8 8V6zm8 17h1v8H1V20h6v5h4v-2h1v2h4v-2zM6 26H2v4h4v-4zm0-5H2v4h4v-4zm5 5H7v4h4v-4zm5 0h-4v4h4v-4zm7-12h1v8H8V11h6v5h4v-2h1v2h4v-2zm-10 3H9v4h4v-4zm0-5H9v4h4v-4zm5 5h-4v4h4v-4zm5 0h-4v4h4v-4zm8-15v11H15V2h16zM20 8h-4v4h4V8zm0-5h-4v4h4V3zm5 5h-4v4h4V8zm0-5h-4v4h4V3zm5 5h-4v4h4V8zm0-5h-4v4h4V3z"/><path d="M12 26h4v4h-4v-4zm7-5h4v-4h-4v4zm2-14h4V3h-4v4zm5 1v4h4V8h-4zM7 22v3h4v-2H8a1 1 0 0 1-1-1zm7-9v3h4v-2h-3a1 1 0 0 1-1-1z" opacity=".5"/></svg>

<?xml version="1.0" encoding="UTF-8"?><svg id="icons" xmlns="http://www.w3.org/2000/svg" viewBox="0 0 32 32"><defs><style>.cls-1{fill:none;}.cls-2{opacity:.5;}.cls-3{opacity:.25;}</style></defs><rect class="cls-1" width="32" height="32"/><path class="cls-3" d="M2,21h4v4H2v-4ZM7,30h4v-4h-4v4ZM9,16h4v-4h-4v4ZM14,21h4v-4h-4v4ZM16,7h4V3h-4v4ZM21,8v4h4v-4h-4Z"/><path d="M8,6H2v-1h6v-2l2.8418,2.5-2.8418,2.5v-2ZM16,23h1v8H1v-11h6v5h4v-2h1v2h4v-2ZM6,26H2v4h4v-4ZM6,21H2v4h4v-4ZM11,26h-4v4h4v-4ZM16,26h-4v4h4v-4ZM23,14h1v8H8v-11h6v5h4v-2h1v2h4v-2ZM13,17h-4v4h4v-4ZM13,12h-4v4h4v-4ZM18,17h-4v4h4v-4ZM23,17h-4v4h4v-4ZM31,2v11H15V2h16ZM20,8h-4v4h4v-4ZM20,3h-4v4h4V3ZM25,8h-4v4h4v-4ZM25,3h-4v4h4V3ZM30,8h-4v4h4v-4ZM30,3h-4v4h4V3Z"/><path class="cls-2" d="M12,26h4v4h-4v-4ZM19,21h4v-4h-4v4ZM21,7h4V3h-4v4ZM26,8v4h4v-4h-4ZM7,22v3h4v-2h-3c-.55273,0-1-.44727-1-1ZM14,13v3h4v-2h-3c-.55273,0-1-.44727-1-1Z"/></svg>
